SVG-Icons/Technical/Grafana/grafana-icon-card-webinar.svg

<svg width="28" height="28" viewBox="0 0 28 28" fill="none" xmlns="http://www.w3.org/2000/svg">
<circle cx="14" cy="14" r="14" fill="#EABDEA"/>
<path fill-rule="evenodd" clip-rule="evenodd" d="M7 8C7 7.44771 7.44772 7 8 7H20.4375C20.9898 7 21.4375 7.44772 21.4375 8V16.0435C21.4375 16.5958 20.9898 17.0435 20.4375 17.0435H8C7.44772 17.0435 7 16.5958 7 16.0435V8Z" fill="#CE64CE"/>
<path fill-rule="evenodd" clip-rule="evenodd" d="M13.9053 16.1685C14.3885 16.1685 14.7803 16.5602 14.7803 17.0435V21.4375C14.7803 21.9207 14.3885 22.3125 13.9053 22.3125C13.422 22.3125 13.0303 21.9207 13.0303 21.4375V17.0435C13.0303 16.5602 13.422 16.1685 13.9053 16.1685Z" fill="#CE64CE"/>
<path fill-rule="evenodd" clip-rule="evenodd" d="M13.286 16.4247C13.6278 16.083 14.1818 16.083 14.5235 16.4247L18.9175 20.8188C19.2592 21.1605 19.2592 21.7145 18.9175 22.0562C18.5758 22.3979 18.0218 22.3979 17.6801 22.0562L13.9048 18.2809L10.1295 22.0562C9.78775 22.3979 9.23373 22.3979 8.89202 22.0562C8.55031 21.7145 8.55031 21.1605 8.89202 20.8188L13.286 16.4247Z" fill="#CE64CE"/>
</svg>

<svg xmlns="http://www.w3.org/2000/svg" fill="none" viewBox="0 0 28 28"><circle cx="14" cy="14" r="14" fill="#EABDEA"/><path fill="#CE64CE" fill-rule="evenodd" d="M7 8a1 1 0 0 1 1-1h12.438a1 1 0 0 1 1 1v8.044a1 1 0 0 1-1 1H8a1 1 0 0 1-1-1V8Z" clip-rule="evenodd"/><path fill="#CE64CE" fill-rule="evenodd" d="M13.905 16.169c.484 0 .875.391.875.875v4.393a.875.875 0 0 1-1.75 0v-4.393c0-.484.392-.875.875-.875Z" clip-rule="evenodd"/><path fill="#CE64CE" fill-rule="evenodd" d="M13.286 16.425a.875.875 0 0 1 1.238 0l4.394 4.394a.875.875 0 1 1-1.238 1.237l-3.775-3.775-3.775 3.775a.875.875 0 0 1-1.238-1.237l4.394-4.394Z" clip-rule="evenodd"/></svg>
